docs/.vuepress/public/buidler-plugin-badge.svg

<?xml version="1.0" encoding="utf-8"?>
<!-- Generator: Adobe Illustrator 23.0.4, SVG Export Plug-In . SVG Version: 6.00 Build 0)  -->
<svg version="1.1" id="ac1680a0-85d5-4372-a01f-b7c9c7928646"
	 xmlns="http://www.w3.org/2000/svg" xmlns:xlink="http://www.w3.org/1999/xlink" x="0px" y="0px" viewBox="0 0 150 30"
	 style="enable-background:new 0 0 150 30;" xml:space="preserve">
<style type="text/css">
	.st0{fill:#292C32;}
	.st1{fill:#F9C838;}
</style>
<title>badge-plugin</title>
<g>
	<polygon class="st0" points="144.5,0 75,0 75,11.5 75.1,15 75,18.5 75,30 150,30 150,5 	"/>
	<polygon class="st1" points="75,10.8 75,0 0,0 0,25 4.8,30 75,30 75,19.2 79.2,15 	"/>
	<path class="st1" d="M101.6,15.4c0,0.9-0.2,1.8-0.7,2.5c-0.5,0.7-1.2,1-2,1c-0.8,0.1-1.5-0.2-2-0.8v3.3h-1.1v-9.5h1.1v0.8
		c0.5-0.6,1.2-0.9,2-0.9c0.8,0,1.5,0.3,2,0.9C101.4,13.5,101.6,14.4,101.6,15.4L101.6,15.4z M100.4,15.3c0-0.6-0.1-1.3-0.5-1.8
		c-0.3-0.4-0.8-0.7-1.4-0.7c-0.7,0-1.3,0.3-1.6,0.9V17c0.3,0.6,0.9,1,1.6,0.9c0.5,0,1-0.2,1.3-0.7C100.3,16.7,100.4,16,100.4,15.3z"
		/>
	<path class="st1" d="M104.3,18.8h-1.2V9h1.2V18.8z"/>
	<path class="st1" d="M110.4,18.1c-0.5,0.6-1.2,0.9-2,0.8c-0.6,0-1.2-0.2-1.7-0.6c-0.4-0.5-0.6-1.2-0.6-1.9v-4.5h1.2v4.4
		c0,1,0.4,1.6,1.3,1.6c0.8,0.1,1.5-0.3,1.8-1v-5h1.2v6.9h-1.1L110.4,18.1z"/>
	<path class="st1" d="M113.1,15.3c-0.1-0.9,0.2-1.8,0.7-2.6c0.5-0.6,1.2-1,2-1c0.8,0,1.5,0.3,2,0.9l0.1-0.8h1.1v6.7
		c0,0.8-0.2,1.5-0.8,2.1c-0.6,0.5-1.3,0.8-2.1,0.8c-0.5,0-1-0.1-1.5-0.3c-0.4-0.2-0.8-0.5-1.1-0.9l0.6-0.7c0.4,0.6,1.1,0.9,1.8,0.9
		c0.5,0,0.9-0.2,1.3-0.5c0.3-0.4,0.5-0.9,0.5-1.4V18c-0.5,0.5-1.2,0.8-1.9,0.8c-0.8,0-1.5-0.3-2-1C113.3,17.1,113,16.2,113.1,15.3z
		 M114.3,15.4c0,0.6,0.1,1.3,0.5,1.8c0.3,0.4,0.8,0.7,1.3,0.7c0.7,0,1.3-0.4,1.6-1v-3.1c-0.3-0.6-0.9-1-1.6-1c-0.5,0-1,0.2-1.3,0.7
		C114.4,14,114.2,14.7,114.3,15.4z"/>
	<path class="st1" d="M120.7,10.1c0-0.2,0.1-0.3,0.2-0.5c0.3-0.2,0.7-0.2,1,0c0.3,0.3,0.3,0.7,0,1c-0.3,0.2-0.7,0.2-1,0
		C120.7,10.5,120.7,10.3,120.7,10.1z M122,18.8h-1.2v-6.9h1.2V18.8z"/>
	<path class="st1" d="M124.9,11.9v0.9c0.5-0.6,1.3-1,2.1-1c1.5,0,2.2,0.8,2.2,2.5v4.5H128v-4.5c0-0.4-0.1-0.8-0.3-1.1
		c-0.3-0.3-0.6-0.4-1-0.4c-0.4,0-0.7,0.1-1,0.3c-0.3,0.2-0.5,0.5-0.7,0.8v4.9h-1.2v-6.9H124.9z"/>
	<path class="st0" d="M18.3,9.1h1.4v4.2l1.5-1.1c0.1,0,0.3,0,0.4,0c1.1-0.1,2,0.6,2.2,1.7c0,0.1,0,0.3,0,0.4v2.5
		c0,1.8-1.3,2.2-2.7,2.2c-1.4,0-2.7-0.5-2.7-2.2V9.1z M19.7,16.7c0,0.6,0.4,1.1,1.3,1.1c0.9,0,1.3-0.5,1.3-1.1v-2
		c0-0.7-0.3-1.1-0.8-1.1c-0.2,0-0.3,0-0.5,0.1l-1.3,0.6V16.7z"/>
	<path class="st0" d="M26.7,12.3v4.1c0,0.7,0.3,1.1,0.8,1.1c0.2,0,0.3,0,0.5-0.1l1.3-0.5v-4.6h1.4v6.5h-1.4v-1l-1.5,1.1
		c-0.1,0-0.3,0.1-0.4,0c-1.1,0.1-2-0.6-2.2-1.7c0-0.1,0-0.3,0-0.4v-4.6H26.7z"/>
	<path class="st0" d="M32.6,10.9V9.1H34v1.8H32.6z M32.6,18.8v-6.5H34v6.5H32.6z"/>
	<path class="st0" d="M39.9,18.8v-1l-1.5,1.1c-0.1,0-0.3,0.1-0.4,0c-1.1,0.1-2-0.6-2.2-1.7c0-0.1,0-0.3,0-0.4v-2.5
		c0-1.4,0.8-2.2,2.5-2.2c0.5,0,1,0.1,1.5,0.3V9.1h1.4v9.7H39.9z M39.9,13.6c-0.4-0.2-0.9-0.3-1.3-0.3c-0.8,0-1.3,0.3-1.3,1.1v1.9
		c0,0.7,0.3,1.1,0.8,1.1c0.2,0,0.3,0,0.5-0.1l1.3-0.5V13.6z"/>
	<path class="st0" d="M43.2,18.8V9.1h1.4v9.7H43.2z"/>
	<path class="st0" d="M51.8,14.4v1.7h-4v0.4c0,1,0.7,1.2,1.7,1.2c0.7,0,1.4-0.1,2.1-0.1v1.2c-0.7,0.1-1.5,0.2-2.2,0.1
		c-1.5,0-3-0.5-3-2.5v-2c0-1.3,0.7-2.3,2.7-2.3C51.2,12.2,51.8,13.1,51.8,14.4z M50.4,15v-0.6c0-0.5-0.2-1-1.3-1
		c-1,0-1.3,0.4-1.3,1.1V15L50.4,15z"/>
	<path class="st0" d="M53.1,18.8v-6.5h1.4v1.5h0.1c0.3-0.9,1.2-1.6,2.1-1.6v1.5c-1,0-1.8,0.6-2.2,1.5v3.6H53.1z"/>
</g>
</svg>

<?xml version="1.0" encoding="UTF-8"?>
<svg width="150px" height="30px" viewBox="0 0 150 30" version="1.1" xmlns="http://www.w3.org/2000/svg" xmlns:xlink="http://www.w3.org/1999/xlink">
    <!-- Generator: Sketch 51.3 (57544) - http://www.bohemiancoding.com/sketch -->
    <title>buidler-plugin-badge</title>
    <desc>Created with Sketch.</desc>
    <defs></defs>
    <g id="Page-1" stroke="none" stroke-width="1" fill="none" fill-rule="evenodd">
        <g id="buidler-plugin-badge" fill-rule="nonzero">
            <polygon id="Shape" fill="#292C32" points="144.5 0 75 0 75 11.5 75.1 15 75 18.5 75 30 150 30 150 5"></polygon>
            <polygon id="Shape" fill="#F9C838" points="75 10.8 75 0 0 0 0 25 4.8 30 75 30 75 19.2 79.2 15"></polygon>
            <path d="M101.6,15.4 C101.6,16.3 101.4,17.2 100.9,17.9 C100.4,18.6 99.7,18.9 98.9,18.9 C98.1,19 97.4,18.7 96.9,18.1 L96.9,21.4 L95.8,21.4 L95.8,11.9 L96.9,11.9 L96.9,12.7 C97.4,12.1 98.1,11.8 98.9,11.8 C99.7,11.8 100.4,12.1 100.9,12.7 C101.4,13.5 101.6,14.4 101.6,15.4 Z M100.4,15.3 C100.4,14.7 100.3,14 99.9,13.5 C99.6,13.1 99.1,12.8 98.5,12.8 C97.8,12.8 97.2,13.1 96.9,13.7 L96.9,17 C97.2,17.6 97.8,18 98.5,17.9 C99,17.9 99.5,17.7 99.8,17.2 C100.3,16.7 100.4,16 100.4,15.3 Z" id="Shape" fill="#F9C838"></path>
            <polygon id="Shape" fill="#F9C838" points="104.3 18.8 103.1 18.8 103.1 9 104.3 9"></polygon>
            <path d="M110.4,18.1 C109.9,18.7 109.2,19 108.4,18.9 C107.8,18.9 107.2,18.7 106.7,18.3 C106.3,17.8 106.1,17.1 106.1,16.4 L106.1,11.9 L107.3,11.9 L107.3,16.3 C107.3,17.3 107.7,17.9 108.6,17.9 C109.4,18 110.1,17.6 110.4,16.9 L110.4,11.9 L111.6,11.9 L111.6,18.8 L110.5,18.8 L110.4,18.1 Z" id="Shape" fill="#F9C838"></path>
            <path d="M113.1,15.3 C113,14.4 113.3,13.5 113.8,12.7 C114.3,12.1 115,11.7 115.8,11.7 C116.6,11.7 117.3,12 117.8,12.6 L117.9,11.8 L119,11.8 L119,18.5 C119,19.3 118.8,20 118.2,20.6 C117.6,21.1 116.9,21.4 116.1,21.4 C115.6,21.4 115.1,21.3 114.6,21.1 C114.2,20.9 113.8,20.6 113.5,20.2 L114.1,19.5 C114.5,20.1 115.2,20.4 115.9,20.4 C116.4,20.4 116.8,20.2 117.2,19.9 C117.5,19.5 117.7,19 117.7,18.5 L117.7,18 C117.2,18.5 116.5,18.8 115.8,18.8 C115,18.8 114.3,18.5 113.8,17.8 C113.3,17.1 113,16.2 113.1,15.3 Z M114.3,15.4 C114.3,16 114.4,16.7 114.8,17.2 C115.1,17.6 115.6,17.9 116.1,17.9 C116.8,17.9 117.4,17.5 117.7,16.9 L117.7,13.8 C117.4,13.2 116.8,12.8 116.1,12.8 C115.6,12.8 115.1,13 114.8,13.5 C114.4,14 114.2,14.7 114.3,15.4 Z" id="Shape" fill="#F9C838"></path>
            <path d="M120.7,10.1 C120.7,9.9 120.8,9.8 120.9,9.6 C121.2,9.4 121.6,9.4 121.9,9.6 C122.2,9.9 122.2,10.3 121.9,10.6 C121.6,10.8 121.2,10.8 120.9,10.6 C120.7,10.5 120.7,10.3 120.7,10.1 Z M122,18.8 L120.8,18.8 L120.8,11.9 L122,11.9 L122,18.8 Z" id="Shape" fill="#F9C838"></path>
            <path d="M124.9,11.9 L124.9,12.8 C125.4,12.2 126.2,11.8 127,11.8 C128.5,11.8 129.2,12.6 129.2,14.3 L129.2,18.8 L128,18.8 L128,14.3 C128,13.9 127.9,13.5 127.7,13.2 C127.4,12.9 127.1,12.8 126.7,12.8 C126.3,12.8 126,12.9 125.7,13.1 C125.4,13.3 125.2,13.6 125,13.9 L125,18.8 L123.8,18.8 L123.8,11.9 L124.9,11.9 Z" id="Shape" fill="#F9C838"></path>
            <path d="M18.3,9.1 L19.7,9.1 L19.7,13.3 L21.2,12.2 C21.3,12.2 21.5,12.2 21.6,12.2 C22.7,12.1 23.6,12.8 23.8,13.9 C23.8,14 23.8,14.2 23.8,14.3 L23.8,16.8 C23.8,18.6 22.5,19 21.1,19 C19.7,19 18.4,18.5 18.4,16.8 L18.4,9.1 L18.3,9.1 Z M19.7,16.7 C19.7,17.3 20.1,17.8 21,17.8 C21.9,17.8 22.3,17.3 22.3,16.7 L22.3,14.7 C22.3,14 22,13.6 21.5,13.6 C21.3,13.6 21.2,13.6 21,13.7 L19.7,14.3 L19.7,16.7 Z" id="Shape" fill="#292C32"></path>
            <path d="M26.7,12.3 L26.7,16.4 C26.7,17.1 27,17.5 27.5,17.5 C27.7,17.5 27.8,17.5 28,17.4 L29.3,16.9 L29.3,12.3 L30.7,12.3 L30.7,18.8 L29.3,18.8 L29.3,17.8 L27.8,18.9 C27.7,18.9 27.5,19 27.4,18.9 C26.3,19 25.4,18.3 25.2,17.2 C25.2,17.1 25.2,16.9 25.2,16.8 L25.2,12.2 L26.7,12.2 L26.7,12.3 Z" id="Shape" fill="#292C32"></path>
            <path d="M32.6,10.9 L32.6,9.1 L34,9.1 L34,10.9 L32.6,10.9 Z M32.6,18.8 L32.6,12.3 L34,12.3 L34,18.8 L32.6,18.8 Z" id="Shape" fill="#292C32"></path>
            <path d="M39.9,18.8 L39.9,17.8 L38.4,18.9 C38.3,18.9 38.1,19 38,18.9 C36.9,19 36,18.3 35.8,17.2 C35.8,17.1 35.8,16.9 35.8,16.8 L35.8,14.3 C35.8,12.9 36.6,12.1 38.3,12.1 C38.8,12.1 39.3,12.2 39.8,12.4 L39.8,9.1 L41.2,9.1 L41.2,18.8 L39.9,18.8 Z M39.9,13.6 C39.5,13.4 39,13.3 38.6,13.3 C37.8,13.3 37.3,13.6 37.3,14.4 L37.3,16.3 C37.3,17 37.6,17.4 38.1,17.4 C38.3,17.4 38.4,17.4 38.6,17.3 L39.9,16.8 L39.9,13.6 Z" id="Shape" fill="#292C32"></path>
            <polygon id="Shape" fill="#292C32" points="43.2 18.8 43.2 9.1 44.6 9.1 44.6 18.8 43.2 18.8"></polygon>
            <path d="M51.8,14.4 L51.8,16.1 L47.8,16.1 L47.8,16.5 C47.8,17.5 48.5,17.7 49.5,17.7 C50.2,17.7 50.9,17.6 51.6,17.6 L51.6,18.8 C50.9,18.9 50.1,19 49.4,18.9 C47.9,18.9 46.4,18.4 46.4,16.4 L46.4,14.4 C46.4,13.1 47.1,12.1 49.1,12.1 C51.2,12.2 51.8,13.1 51.8,14.4 Z M50.4,15 L50.4,14.4 C50.4,13.9 50.2,13.4 49.1,13.4 C48.1,13.4 47.8,13.8 47.8,14.5 L47.8,15 L50.4,15 Z" id="Shape" fill="#292C32"></path>
            <path d="M53.1,18.8 L53.1,12.3 L54.5,12.3 L54.5,13.8 L54.6,13.8 C54.9,12.9 55.8,12.2 56.7,12.2 L56.7,13.7 C55.7,13.7 54.9,14.3 54.5,15.2 L54.5,18.8 L53.1,18.8 Z" id="Shape" fill="#292C32"></path>
        </g>
    </g>
</svg>
